X:96
T:Lady Bampfylde's Reel. JJo8.096
B:J.Johnson Choice Collection Vol 8 1758
Z:vmp.Simon Wilson 2013 www.village-music-project.org.uk
M:C|
L:1/8
Q:1/2=80
K:G
|:G>BG>B de/f/ ge|dBgB AA/A/A2|G>BG>B de/f/ ge|dBgB GG/G/G2:|
|:dBgB dBgB|fg/a/ fd fg/a/ fd|Bgfa ga/b/ ge|dBgB GG/G/G2:|

